symbols/web/home_max/materialsymbolsrounded/home_max_wght300_24px.svg

<svg xmlns="http://www.w3.org/2000/svg" height="24" width="24"><path d="M8.4 18.375q-.375 0-.637-.25-.263-.25-.263-.625H5q-1.45 0-2.475-1.025Q1.5 15.45 1.5 14V9q0-1.45 1.025-2.475Q3.55 5.5 5 5.5h14q1.45 0 2.475 1.025Q22.5 7.55 22.5 9v5q0 1.45-1.025 2.475Q20.45 17.5 19 17.5h-2.5q0 .375-.262.625-.263.25-.638.25ZM3 7V16 7Zm2 9h14q.825 0 1.413-.588Q21 14.825 21 14V9q0-.825-.587-1.413Q19.825 7 19 7H5q-.825 0-1.413.587Q3 8.175 3 9v5q0 .825.587 1.412Q4.175 16 5 16Z"/></svg>

<svg xmlns="http://www.w3.org/2000/svg" height="24" width="24"><path d="M8.4 18.375Q8.025 18.375 7.763 18.125Q7.5 17.875 7.5 17.5H5Q3.55 17.5 2.525 16.475Q1.5 15.45 1.5 14V9Q1.5 7.55 2.525 6.525Q3.55 5.5 5 5.5H19Q20.45 5.5 21.475 6.525Q22.5 7.55 22.5 9V14Q22.5 15.45 21.475 16.475Q20.45 17.5 19 17.5H16.5Q16.5 17.875 16.238 18.125Q15.975 18.375 15.6 18.375ZM3 7Q3 7 3 7.587Q3 8.175 3 9V14Q3 14.825 3 15.412Q3 16 3 16Q3 16 3 15.412Q3 14.825 3 14V9Q3 8.175 3 7.587Q3 7 3 7ZM5 16H19Q19.825 16 20.413 15.412Q21 14.825 21 14V9Q21 8.175 20.413 7.587Q19.825 7 19 7H5Q4.175 7 3.587 7.587Q3 8.175 3 9V14Q3 14.825 3.587 15.412Q4.175 16 5 16Z"/></svg>
